X:1
T:Ameni Colli
T:Francesco Soriano
T:Canzonette a la Romana a tre voci---Venetia---Ang.Gardano---1601. Editor : André Vierendeels (20/01/17)
T:Notes : Original clefs : G2, C2, C3 Editorial accidentals above the staff
T:Ameni Colli
T:©
T:©
T:©
C:Francesco Soriano
Z:©
%%score [ 1 2 3 ]
L:1/8
Q:1/4=120
M:4/4
K:C
V:1 treble nm="Soprano 1" snm="S 1"
V:2 treble nm="Soprano 2" snm="S 2"
V:3 treble-8 nm="Tenor" snm="T"
V:1
 d4 d2 c2 | B4 B4 | G2 A2 B2 c2 | d4 d4 | g4 g2 f2 | e4 e4 | d3 d d2 e2 | ^f4 f4 | z8 | d4 B2 e2 | %10
w: A- me- ni|Col- li|va- ghi Mon- ti-|cel- li,|a- me- ni|Col- li|va- ghi Mon- ti-|cel- li,||fres- che fon-|
w: Bos- chet- ti'al-|ber- go|de can- tan- ti'au-|gel- li,|bos- chet- ti'al-|ber- go|de can- tan- ti'au-|gel- li,||che fan- no|
 d6 c2 | c3 c d2 d2 | e8 |[M:2/4] e4 ::[M:4/4] c4 c4 | d4 c4 | c2 A4 d2 | c2 A2 c3 B/A/ | %18
w: ta- n'e|di- let- to- se|ri-|ve,|di fio-|ri ver-|di pra- ti-|cel- * * * *|
w: di mar-|tir l'a- ni- me|pri-|ne,|O co-|me vo-|len- tier tra|voi sta- ri- * *|
 B2 G2 A2 d2- | d2 c2 B2 G2 | A4 A4 :: B4 c4- | c2 c2 c4 | B4 G2 g2 | gfed c4- | c2 c2 B3 A/G/ | %26
w: * * li, ver-|* di pra- ti-|cel- li,|ch'à voi|_ pen- san-|do'il cor s'ap-|pa- * * * *|* ga'e vi _ _|
w: * * a, vo-|len- tier tra voi|sta- ria,|pur che|_ vi fos-|se'an- cor la|don- * * * *|* na mi- * *|
 A4 !fermata!G4 :| %27
w: _ ve.|
w: * a.|
V:2
 z8 | z8 | G4 G2 A2 | B4 B4 | B3 B B2 B2 | c6 BA | B8 | A8 | B4 B2 c2 | B3 c d2 c2 | B3 A/G/ A4- | %11
w: ||A- me- ne|Col- li|va- ghi Mon- ti-|cel- * *||li,|fre- sche fon-|ta- * * n'e|di- * * *|
w: ||Bo- schet- ti'al-|ber- go|de can- tan- ti'au-|gel- * *||li,|che san- no|di _ _ mar-|tir _ _ _|
 A2 G2 A2 B2 | c8 |[M:2/4] c4 ::[M:4/4] A4 A4 | _B4 A4 |"^b" A3 B c2 F2- | F2 F2 E2 C2 | E4 D4 | %19
w: * let- to- se|ri-|ve;|di fio-|ri ver-|di _ _ pra-|* ti- cel- *|* li,|
w: _ l'a- ni- me|pri-|ne,|O co-|me vo-|len- * * tier|_ tra voi sta-|ria, vo-|
 G3 G G2 G2 | ^F4 F4 :: G4 A4- | A2 G2 A4 | G4 E3 D | C2 c2 cBAG | F2 A4 G2- | %26
w: ver- di pra- ti-|cel- li,|ch'à voi|_ pen- san-|do'il cor _|_ s'ap- pa- * * *|ga'e vi- *|
w: len- tier tra voi|sta- ria,|pur che|_ vi fos-|se'an- cor _|_ la don- * * *|na mi- *|
 G2 ^F2 !fermata!G4 :| %27
w: * * ve,|
w: * * a.|
V:3
 z8 | z8 | z8 | g4 g2 f2 | e4 e4 | c2 d2 e2 f2 | g8 | d8 | g4 e2 a2 | g8 | g4 f4- | f2 e2 f2 g2 | %12
w: |||A- me- ni|Col- li|va- ghi Mon- ti-|cel-|li,|fre- sche fon-|ta-|n'e di-|* let- to- so|
w: |||Bo- schet- ti'al-|ber- go|de can- tan- ti'au-|gel-|li,|che san- no|di|mar- tir|_ l'a- ni- me|
 c8 |[M:2/4] c4 ::[M:4/4] f4 f4 | _B4 f4 | f2 F4 B2 |"^b" A2 F2 A4 | G2 g4 f2 | e2 c2 e4 | %20
w: ri-|ve,|di fio-|ri'a- dor-|ni ver- di|pra- ti- cel-|li, ver- di|pra- ti- cel-|
w: pri-|ve,|O co-|me vo-|len- tier y-|tra voi sta-|ria, vo- lon-|tier tra voi|
 d4- d4 :: G4 F4- | F2 E2 F4 | G4 c4 | e4 f3 g | a2 f2 g3 f/e/ | d4 !fermata!G4 :| %27
w: li, _|ch'à voi|_ pen- san-|do'il cor|s'ap- pa- *|* ga'e v- * *|* ve.|
w: sta- ria,|pur che|_ vi fos-|se'an- cor|la don- *|* na mi- * *|* a.|

